X: 0
T: Shepherds Night-watch Keeping
Z: C. E. Deffell
Z: Sequenced 2003 by Douglas D. Anderson
Z: Public Domain
L: 1/4
M: 9/8
Q: 1/4=90
V: P1 name="Staff"
%%MIDI program 1 19
K: Eb
[V: P1]  B c/ e d/ B A/ | G A/ c B/ G F/ | E F/ A G/ G e/ | e f/ e d/ c B/ | [M: 3/4]  B/ c/ d/ c/ B/ A/ | G/ A/ c/ B/ G/ F/ | E/ F/ A/ G/ G/ e/ | e/ f/ g/ B/ B/ e/ | [M: 9/8]  G F/ G A/ B3/ | B A/ c B/ B3/ | E F/ F G/ G G/ | [M: 4/4]  G3/ G/ c3/ B/ | B2|]
w: Shep- herds night- watch keep- ing Ma- ny stars a- peep ing, Faint- ings hearts a- weep ing, All the world a- sleep ing. Ser- aph songs a- sing ing, Bells in heav'n a- ring ing, An- gel Hosts a- wing ing, Great good news a- bring ing. So it came to pass. Pa- tris le- ni tas! Na- ti ca- ri tas! O red- de gra- ti as!

